X:1
T:Country dance
T:Country dance
T:Franz Joseph Haydn
C:Franz Joseph Haydn
%%score 1 2 3
L:1/8
Q:1/4=108
M:2/4
K:Eb
V:1 treble 
V:2 treble 
V:3 bass 
V:1
 e3 B | (3GAG EE | AF DB, | E/D/E/F/ EE | e3 B | (3GAG EE | AF DB, | E2 E2 :: g3 f | edcB | ccdd | %11
 e/d/e/f/ ee | g3 f | edcB | cafd | e2 e2 :: b3 a | gfgf | gabc' | f4 | aaaf | gbee | fadd | %23
 e2 e2 :| %24
V:2
 x4 | x4 | x4 | x4 | x4 | x4 | x4 | x4 :: e3 d | cBAG | AAFF | G2 GG | e3 d | cBAG | x4 | x4 :: %16
 g3 f | eded | efga | d4 | fffd | e z cc | c z FF | G2 G2 :| %24
V:3
 E,B,G,B, | E,B,G,B, | F,B,A,B, | E,B,G,B, | E,B,G,B, | E,B,G,B, | F,B,A,B, | E,2 E,,2 :: %8
 E,E,E,E, | E,E,E,E, | E,,E,E,,E, | E,,E,E,,E, | E,,E,E,,E, | E,,E,E,,E, | A,F,B,B,, | E,2 E,,2 :: %16
 E,,E,E,,E, | E,,E,E,,E, | E,,E,E,,E, | B,4 | B,,2 B,2 | E,2 C2 | A,F,B,B,, | E,2 E,,2 :| %24

